src/dsmComponents/Icons/device-mobile-disconnected-24px.svg

<?xml version="1.0" encoding="UTF-8"?>
<svg width="24px" height="24px" viewBox="0 0 24 24" version="1.1" xmlns="http://www.w3.org/2000/svg" xmlns:xlink="http://www.w3.org/1999/xlink">
    <!-- Generator: Sketch 59.1 (86144) - https://sketch.com -->
    <title>device-mobile-disconnected-24px</title>
    <desc>Created with Sketch.</desc>
    <defs>
        <path d="M9.63895379,20.2494 L14.1389538,20.2494 C14.5529538,20.2494 14.8889538,19.9134 14.8889538,19.4994 C14.8889538,19.0854 14.5529538,18.7494 14.1389538,18.7494 L9.63895379,18.7494 C9.22495379,18.7494 8.88895379,19.0854 8.88895379,19.4994 C8.88895379,19.9134 9.22495379,20.2494 9.63895379,20.2494 M17.1727038,20.2494 C17.1727038,21.0789 16.5022038,21.7494 15.6727038,21.7494 L8.16370379,21.7494 C7.33570379,21.7494 6.66370379,21.0789 6.66370379,20.2494 L6.66370379,7.1184 L17.1727038,15.9354 L17.1727038,20.2494 Z M0.656203792,0.2469 C0.867703792,-0.0066 1.24570379,-0.0381 1.49920379,0.1719 L1.49920379,0.1719 L23.5627038,18.6864 C23.8177038,18.8994 23.8492038,19.2774 23.6392038,19.5309 L23.6392038,19.5309 L23.1217038,20.1459 C22.9087038,20.3994 22.5307038,20.4309 22.2772038,20.2179 L22.2772038,20.2179 L20.8882038,19.0524 L19.3897038,17.7939 L19.3897038,20.9994 C19.3897038,22.6554 18.0457038,23.9994 16.3897038,23.9994 L16.3897038,23.9994 L7.38970379,23.9994 C5.73220379,23.9994 4.38970379,22.6554 4.38970379,20.9994 L4.38970379,20.9994 L4.38970379,5.2089 L2.88820379,3.9504 L0.213703792,1.7064 C-0.0397962078,1.4919 -0.0727962078,1.1139 0.141703792,0.8604 L0.141703792,0.8604 Z M16.3897038,0 C18.0457038,0 19.3897038,1.3425 19.3897038,3 L19.3897038,3 L19.3897038,12.579 L17.1727038,10.7205 L17.1727038,3.8175 C17.1727038,2.988 16.5007038,2.3175 15.6727038,2.3175 L15.6727038,2.3175 L8.16370379,2.3175 C7.89070379,2.3175 7.64470379,2.4105 7.42420379,2.5395 L7.42420379,2.5395 L5.35870379,0.807 C5.89120379,0.309 6.59920379,0 7.38970379,0 L7.38970379,0 Z" id="path-1"></path>
    </defs>
    <g id="Final" stroke="none" stroke-width="1" fill="none" fill-rule="evenodd">
        <g id="All-Nucleo-Icons" transform="translate(-608.000000, -2205.000000)">
            <g id="Solo/Nucleo/24px/device-mobile-disconnected" transform="translate(608.000000, 2205.000000)">
                <g id="phone-not-connected">
                    <g id="Colour/Default-Colour">
                        <mask id="mask-2" fill="white">
                            <use xlink:href="#path-1"></use>
                        </mask>
                        <use id="Mask" fill="#555555" xlink:href="#path-1"></use>
                        <g id="colour/neutral/chia" mask="url(#mask-2)" fill="#737373">
                            <g transform="translate(-36.000000, -36.000000)" id="Colour">
                                <rect x="0" y="0" width="96" height="96"></rect>
                            </g>
                        </g>
                    </g>
                </g>
            </g>
        </g>
    </g>
</svg>

<svg width="24" height="24" xmlns="http://www.w3.org/2000/svg" xmlns:xlink="http://www.w3.org/1999/xlink"><defs><path d="M9.639 20.25h4.5a.75.75 0 000-1.5h-4.5a.75.75 0 000 1.5m7.534 0c0 .829-.67 1.5-1.5 1.5h-7.51a1.5 1.5 0 01-1.5-1.5V7.117l10.51 8.817v4.314zM.656.246A.6.6 0 011.5.172l22.064 18.514a.601.601 0 01.076.845l-.517.615a.6.6 0 01-.845.072l-1.389-1.166-1.498-1.258v3.205c0 1.656-1.344 3-3 3h-9a3 3 0 01-3-3V5.21L2.888 3.95.214 1.706A.6.6 0 01.142.86zM16.39 0a3 3 0 013 3v9.579l-2.217-1.859V3.817a1.5 1.5 0 00-1.5-1.5h-7.51c-.272 0-.518.093-.739.222L5.36.807A2.956 2.956 0 017.389 0z" id="device-mobile-disconnected-24px_svg__a"/></defs><use fill="#737373" xlink:href="#device-mobile-disconnected-24px_svg__a" fill-rule="evenodd"/></svg>
